src/nexus_ai_agent/creative/luts/warm.cube
TITLE "nagar-warm-16"
LUT_3D_SIZE 16
DOMAIN_MIN 0.0 0.0 0.0
DOMAIN_MAX 1.0 1.0 1.0
0.012000 0.004000 0.000000
0.083333 0.004000 0.000000
0.154667 0.004000 0.000000
0.226000 0.004000 0.000000
0.297333 0.004000 0.000000
0.368667 0.004000 0.000000
0.440000 0.004000 0.000000
0.511333 0.004000 0.000000
0.582667 0.004000 0.000000
0.654000 0.004000 0.000000
0.725333 0.004000 0.000000
0.796667 0.004000 0.000000
0.868000 0.004000 0.000000
0.939333 0.004000 0.000000
1.000000 0.004000 0.000000
1.000000 0.004000 0.000000
0.012000 0.071667 0.000000
0.083333 0.071667 0.000000
0.154667 0.071667 0.000000
0.226000 0.071667 0.000000
0.297333 0.071667 0.000000
0.368667 0.071667 0.000000
0.440000 0.071667 0.000000
0.511333 0.071667 0.000000
0.582667 0.071667 0.000000
0.654000 0.071667 0.000000
0.725333 0.071667 0.000000
0.796667 0.071667 0.000000
0.868000 0.071667 0.000000
0.939333 0.071667 0.000000
1.000000 0.071667 0.000000
1.000000 0.071667 0.000000
0.012000 0.139333 0.000000
0.083333 0.139333 0.000000
0.154667 0.139333 0.000000
0.226000 0.139333 0.000000
0.297333 0.139333 0.000000
0.368667 0.139333 0.000000
0.440000 0.139333 0.000000
0.511333 0.139333 0.000000
0.582667 0.139333 0.000000
0.654000 0.139333 0.000000
0.725333 0.139333 0.000000
0.796667 0.139333 0.000000
0.868000 0.139333 0.000000
0.939333 0.139333 0.000000
1.000000 0.139333 0.000000
1.000000 0.139333 0.000000
0.012000 0.207000 0.000000
0.083333 0.207000 0.000000
0.154667 0.207000 0.000000
0.226000 0.207000 0.000000
0.297333 0.207000 0.000000
0.368667 0.207000 0.000000
0.440000 0.207000 0.000000
0.511333 0.207000 0.000000
0.582667 0.207000 0.000000
0.654000 0.207000 0.000000
0.725333 0.207000 0.000000
0.796667 0.207000 0.000000
0.868000 0.207000 0.000000
0.939333 0.207000 0.000000
1.000000 0.207000 0.000000
1.000000 0.207000 0.000000
0.012000 0.274667 0.000000
0.083333 0.274667 0.000000
0.154667 0.274667 0.000000
0.226000 0.274667 0.000000
0.297333 0.274667 0.000000
0.368667 0.274667 0.000000
0.440000 0.274667 0.000000
0.511333 0.274667 0.000000
0.582667 0.274667 0.000000
0.654000 0.274667 0.000000
0.725333 0.274667 0.000000
0.796667 0.274667 0.000000
0.868000 0.274667 0.000000
0.939333 0.274667 0.000000
1.000000 0.274667 0.000000
1.000000 0.274667 0.000000
0.012000 0.342333 0.000000
0.083333 0.342333 0.000000
0.154667 0.342333 0.000000
0.226000 0.342333 0.000000
0.297333 0.342333 0.000000
0.368667 0.342333 0.000000
0.440000 0.342333 0.000000
0.511333 0.342333 0.000000
0.582667 0.342333 0.000000
0.654000 0.342333 0.000000
0.725333 0.342333 0.000000
0.796667 0.342333 0.000000
0.868000 0.342333 0.000000
0.939333 0.342333 0.000000
1.000000 0.342333 0.000000
1.000000 0.342333 0.000000
0.012000 0.410000 0.000000
0.083333 0.410000 0.000000
0.154667 0.410000 0.000000
0.226000 0.410000 0.000000
0.297333 0.410000 0.000000
0.368667 0.410000 0.000000
0.440000 0.410000 0.000000
0.511333 0.410000 0.000000
0.582667 0.410000 0.000000
0.654000 0.410000 0.000000
0.725333 0.410000 0.000000
0.796667 0.410000 0.000000
0.868000 0.410000 0.000000
0.939333 0.410000 0.000000
1.000000 0.410000 0.000000
1.000000 0.410000 0.000000
0.012000 0.477667 0.000000
0.083333 0.477667 0.000000
0.154667 0.477667 0.000000
0.226000 0.477667 0.000000
0.297333 0.477667 0.000000
0.368667 0.477667 0.000000
0.440000 0.477667 0.000000
0.511333 0.477667 0.000000
0.582667 0.477667 0.000000
0.654000 0.477667 0.000000
0.725333 0.477667 0.000000
0.796667 0.477667 0.000000
0.868000 0.477667 0.000000
0.939333 0.477667 0.000000
1.000000 0.477667 0.000000
1.000000 0.477667 0.000000
0.012000 0.545333 0.000000
0.083333 0.545333 0.000000
0.154667 0.545333 0.000000
0.226000 0.545333 0.000000
0.297333 0.545333 0.000000
0.368667 0.545333 0.000000
0.440000 0.545333 0.000000
0.511333 0.545333 0.000000
0.582667 0.545333 0.000000
0.654000 0.545333 0.000000
0.725333 0.545333 0.000000
0.796667 0.545333 0.000000
0.868000 0.545333 0.000000
0.939333 0.545333 0.000000
1.000000 0.545333 0.000000
1.000000 0.545333 0.000000
0.012000 0.613000 0.000000
0.083333 0.613000 0.000000
0.154667 0.613000 0.000000
0.226000 0.613000 0.000000
0.297333 0.613000 0.000000
0.368667 0.613000 0.000000
0.440000 0.613000 0.000000
0.511333 0.613000 0.000000
0.582667 0.613000 0.000000
0.654000 0.613000 0.000000
0.725333 0.613000 0.000000
0.796667 0.613000 0.000000
0.868000 0.613000 0.000000
0.939333 0.613000 0.000000
1.000000 0.613000 0.000000
1.000000 0.613000 0.000000
0.012000 0.680667 0.000000
0.083333 0.680667 0.000000
0.154667 0.680667 0.000000
0.226000 0.680667 0.000000
0.297333 0.680667 0.000000
0.368667 0.680667 0.000000
0.440000 0.680667 0.000000
0.511333 0.680667 0.000000
0.582667 0.680667 0.000000
0.654000 0.680667 0.000000
0.725333 0.680667 0.000000
0.796667 0.680667 0.000000
0.868000 0.680667 0.000000
0.939333 0.680667 0.000000
1.000000 0.680667 0.000000
1.000000 0.680667 0.000000
0.012000 0.748333 0.000000
0.083333 0.748333 0.000000
0.154667 0.748333 0.000000
0.226000 0.748333 0.000000
0.297333 0.748333 0.000000
0.368667 0.748333 0.000000
0.440000 0.748333 0.000000
0.511333 0.748333 0.000000
0.582667 0.748333 0.000000
0.654000 0.748333 0.000000
0.725333 0.748333 0.000000
0.796667 0.748333 0.000000
0.868000 0.748333 0.000000
0.939333 0.748333 0.000000
1.000000 0.748333 0.000000
1.000000 0.748333 0.000000
0.012000 0.816000 0.000000
0.083333 0.816000 0.000000
0.154667 0.816000 0.000000
0.226000 0.816000 0.000000
0.297333 0.816000 0.000000
0.368667 0.816000 0.000000
0.440000 0.816000 0.000000
0.511333 0.816000 0.000000
0.582667 0.816000 0.000000
0.654000 0.816000 0.000000
0.725333 0.816000 0.000000
0.796667 0.816000 0.000000
0.868000 0.816000 0.000000
0.939333 0.816000 0.000000
1.000000 0.816000 0.000000
1.000000 0.816000 0.000000
0.012000 0.883667 0.000000
0.083333 0.883667 0.000000
0.154667 0.883667 0.000000
0.226000 0.883667 0.000000
0.297333 0.883667 0.000000
0.368667 0.883667 0.000000
0.440000 0.883667 0.000000
0.511333 0.883667 0.000000
0.582667 0.883667 0.000000
0.654000 0.883667 0.000000
0.725333 0.883667 0.000000
0.796667 0.883667 0.000000
0.868000 0.883667 0.000000
0.939333 0.883667 0.000000
1.000000 0.883667 0.000000
1.000000 0.883667 0.000000
0.012000 0.951333 0.000000
0.083333 0.951333 0.000000
0.154667 0.951333 0.000000
0.226000 0.951333 0.000000
0.297333 0.951333 0.000000
0.368667 0.951333 0.000000
0.440000 0.951333 0.000000
0.511333 0.951333 0.000000
0.582667 0.951333 0.000000
0.654000 0.951333 0.000000
0.725333 0.951333 0.000000
0.796667 0.951333 0.000000
0.868000 0.951333 0.000000
0.939333 0.951333 0.000000
1.000000 0.951333 0.000000
1.000000 0.951333 0.000000
0.012000 1.000000 0.000000
0.083333 1.000000 0.000000
0.154667 1.000000 0.000000
0.226000 1.000000 0.000000
0.297333 1.000000 0.000000
0.368667 1.000000 0.000000
0.440000 1.000000 0.000000
0.511333 1.000000 0.000000
0.582667 1.000000 0.000000
0.654000 1.000000 0.000000
0.725333 1.000000 0.000000
0.796667 1.000000 0.000000
0.868000 1.000000 0.000000
0.939333 1.000000 0.000000
1.000000 1.000000 0.000000
1.000000 1.000000 0.000000
0.012000 0.004000 0.055667
0.083333 0.004000 0.055667
0.154667 0.004000 0.055667
0.226000 0.004000 0.055667
0.297333 0.004000 0.055667
0.368667 0.004000 0.055667
0.440000 0.004000 0.055667
0.511333 0.004000 0.055667
0.582667 0.004000 0.055667
0.654000 0.004000 0.055667
0.725333 0.004000 0.055667
0.796667 0.004000 0.055667
0.868000 0.004000 0.055667
0.939333 0.004000 0.055667
1.000000 0.004000 0.055667
1.000000 0.004000 0.055667
0.012000 0.071667 0.055667
0.083333 0.071667 0.055667
0.154667 0.071667 0.055667
0.226000 0.071667 0.055667
0.297333 0.071667 0.055667
0.368667 0.071667 0.055667
0.440000 0.071667 0.055667
0.511333 0.071667 0.055667
0.582667 0.071667 0.055667
0.654000 0.071667 0.055667
0.725333 0.071667 0.055667
0.796667 0.071667 0.055667
0.868000 0.071667 0.055667
0.939333 0.071667 0.055667
1.000000 0.071667 0.055667
1.000000 0.071667 0.055667
0.012000 0.139333 0.055667
0.083333 0.139333 0.055667
0.154667 0.139333 0.055667
0.226000 0.139333 0.055667
0.297333 0.139333 0.055667
0.368667 0.139333 0.055667
0.440000 0.139333 0.055667
0.511333 0.139333 0.055667
0.582667 0.139333 0.055667
0.654000 0.139333 0.055667
0.725333 0.139333 0.055667
0.796667 0.139333 0.055667
0.868000 0.139333 0.055667
0.939333 0.139333 0.055667
1.000000 0.139333 0.055667
1.000000 0.139333 0.055667
0.012000 0.207000 0.055667
0.083333 0.207000 0.055667
0.154667 0.207000 0.055667
0.226000 0.207000 0.055667
0.297333 0.207000 0.055667
0.368667 0.207000 0.055667
0.440000 0.207000 0.055667
0.511333 0.207000 0.055667
0.582667 0.207000 0.055667
0.654000 0.207000 0.055667
0.725333 0.207000 0.055667
0.796667 0.207000 0.055667
0.868000 0.207000 0.055667
0.939333 0.207000 0.055667
1.000000 0.207000 0.055667
1.000000 0.207000 0.055667
0.012000 0.274667 0.055667
0.083333 0.274667 0.055667
0.154667 0.274667 0.055667
0.226000 0.274667 0.055667
0.297333 0.274667 0.055667
0.368667 0.274667 0.055667
0.440000 0.274667 0.055667
0.511333 0.274667 0.055667
0.582667 0.274667 0.055667
0.654000 0.274667 0.055667
0.725333 0.274667 0.055667
0.796667 0.274667 0.055667
0.868000 0.274667 0.055667
0.939333 0.274667 0.055667
1.000000 0.274667 0.055667
1.000000 0.274667 0.055667
0.012000 0.342333 0.055667
0.083333 0.342333 0.055667
0.154667 0.342333 0.055667
0.226000 0.342333 0.055667
0.297333 0.342333 0.055667
0.368667 0.342333 0.055667
0.440000 0.342333 0.055667
0.511333 0.342333 0.055667
0.582667 0.342333 0.055667
0.654000 0.342333 0.055667
0.725333 0.342333 0.055667
0.796667 0.342333 0.055667
0.868000 0.342333 0.055667
0.939333 0.342333 0.055667
1.000000 0.342333 0.055667
1.000000 0.342333 0.055667
0.012000 0.410000 0.055667
0.083333 0.410000 0.055667
0.154667 0.410000 0.055667
0.226000 0.410000 0.055667
0.297333 0.410000 0.055667
0.368667 0.410000 0.055667
0.440000 0.410000 0.055667
0.511333 0.410000 0.055667
0.582667 0.410000 0.055667
0.654000 0.410000 0.055667
0.725333 0.410000 0.055667
0.796667 0.410000 0.055667
0.868000 0.410000 0.055667
0.939333 0.410000 0.055667
1.000000 0.410000 0.055667
1.000000 0.410000 0.055667
0.012000 0.477667 0.055667
0.083333 0.477667 0.055667
0.154667 0.477667 0.055667
0.226000 0.477667 0.055667
0.297333 0.477667 0.055667
0.368667 0.477667 0.055667
0.440000 0.477667 0.055667
0.511333 0.477667 0.055667
0.582667 0.477667 0.055667
0.654000 0.477667 0.055667
0.725333 0.477667 0.055667
0.796667 0.477667 0.055667
0.868000 0.477667 0.055667
0.939333 0.477667 0.055667
1.000000 0.477667 0.055667
1.000000 0.477667 0.055667
0.012000 0.545333 0.055667
0.083333 0.545333 0.055667
0.154667 0.545333 0.055667
0.226000 0.545333 0.055667
0.297333 0.545333 0.055667
0.368667 0.545333 0.055667
0.440000 0.545333 0.055667
0.511333 0.545333 0.055667
0.582667 0.545333 0.055667
0.654000 0.545333 0.055667
0.725333 0.545333 0.055667
0.796667 0.545333 0.055667
0.868000 0.545333 0.055667
0.939333 0.545333 0.055667
1.000000 0.545333 0.055667
1.000000 0.545333 0.055667
0.012000 0.613000 0.055667
0.083333 0.613000 0.055667
0.154667 0.613000 0.055667
0.226000 0.613000 0.055667
0.297333 0.613000 0.055667
0.368667 0.613000 0.055667
0.440000 0.613000 0.055667
0.511333 0.613000 0.055667
0.582667 0.613000 0.055667
0.654000 0.613000 0.055667
0.725333 0.613000 0.055667
0.796667 0.613000 0.055667
0.868000 0.613000 0.055667
0.939333 0.613000 0.055667
1.000000 0.613000 0.055667
1.000000 0.613000 0.055667
0.012000 0.680667 0.055667
0.083333 0.680667 0.055667
0.154667 0.680667 0.055667
0.226000 0.680667 0.055667
0.297333 0.680667 0.055667
0.368667 0.680667 0.055667
0.440000 0.680667 0.055667
0.511333 0.680667 0.055667
0.582667 0.680667 0.055667
0.654000 0.680667 0.055667
0.725333 0.680667 0.055667
0.796667 0.680667 0.055667
0.868000 0.680667 0.055667
0.939333 0.680667 0.055667
1.000000 0.680667 0.055667
1.000000 0.680667 0.055667
0.012000 0.748333 0.055667
0.083333 0.748333 0.055667
0.154667 0.748333 0.055667
0.226000 0.748333 0.055667
0.297333 0.748333 0.055667
0.368667 0.748333 0.055667
0.440000 0.748333 0.055667
0.511333 0.748333 0.055667
0.582667 0.748333 0.055667
0.654000 0.748333 0.055667
0.725333 0.748333 0.055667
0.796667 0.748333 0.055667
0.868000 0.748333 0.055667
0.939333 0.748333 0.055667
1.000000 0.748333 0.055667
1.000000 0.748333 0.055667
0.012000 0.816000 0.055667
0.083333 0.816000 0.055667
0.154667 0.816000 0.055667
0.226000 0.816000 0.055667
0.297333 0.816000 0.055667
0.368667 0.816000 0.055667
0.440000 0.816000 0.055667
0.511333 0.816000 0.055667
0.582667 0.816000 0.055667
0.654000 0.816000 0.055667
0.725333 0.816000 0.055667
0.796667 0.816000 0.055667
0.868000 0.816000 0.055667
0.939333 0.816000 0.055667
1.000000 0.816000 0.055667
1.000000 0.816000 0.055667
0.012000 0.883667 0.055667
0.083333 0.883667 0.055667
0.154667 0.883667 0.055667
0.226000 0.883667 0.055667
0.297333 0.883667 0.055667
0.368667 0.883667 0.055667
0.440000 0.883667 0.055667
0.511333 0.883667 0.055667
0.582667 0.883667 0.055667
0.654000 0.883667 0.055667
0.725333 0.883667 0.055667
0.796667 0.883667 0.055667
0.868000 0.883667 0.055667
0.939333 0.883667 0.055667
1.000000 0.883667 0.055667
1.000000 0.883667 0.055667
0.012000 0.951333 0.055667
0.083333 0.951333 0.055667
0.154667 0.951333 0.055667
0.226000 0.951333 0.055667
0.297333 0.951333 0.055667
0.368667 0.951333 0.055667
0.440000 0.951333 0.055667
0.511333 0.951333 0.055667
0.582667 0.951333 0.055667
0.654000 0.951333 0.055667
0.725333 0.951333 0.055667
0.796667 0.951333 0.055667
0.868000 0.951333 0.055667
0.939333 0.951333 0.055667
1.000000 0.951333 0.055667
1.000000 0.951333 0.055667
0.012000 1.000000 0.055667
0.083333 1.000000 0.055667
0.154667 1.000000 0.055667
0.226000 1.000000 0.055667
0.297333 1.000000 0.055667
0.368667 1.000000 0.055667
0.440000 1.000000 0.055667
0.511333 1.000000 0.055667
0.582667 1.000000 0.055667
0.654000 1.000000 0.055667
0.725333 1.000000 0.055667
0.796667 1.000000 0.055667
0.868000 1.000000 0.055667
0.939333 1.000000 0.055667
1.000000 1.000000 0.055667
1.000000 1.000000 0.055667
0.012000 0.004000 0.117333
0.083333 0.004000 0.117333
0.154667 0.004000 0.117333
0.226000 0.004000 0.117333
0.297333 0.004000 0.117333
0.368667 0.004000 0.117333
0.440000 0.004000 0.117333
0.511333 0.004000 0.117333
0.582667 0.004000 0.117333
0.654000 0.004000 0.117333
0.725333 0.004000 0.117333
0.796667 0.004000 0.117333
0.868000 0.004000 0.117333
0.939333 0.004000 0.117333
1.000000 0.004000 0.117333
1.000000 0.004000 0.117333
0.012000 0.071667 0.117333
0.083333 0.071667 0.117333
0.154667 0.071667 0.117333
0.226000 0.071667 0.117333
0.297333 0.071667 0.117333
0.368667 0.071667 0.117333
0.440000 0.071667 0.117333
0.511333 0.071667 0.117333
0.582667 0.071667 0.117333
0.654000 0.071667 0.117333
0.725333 0.071667 0.117333
0.796667 0.071667 0.117333
0.868000 0.071667 0.117333
0.939333 0.071667 0.117333
1.000000 0.071667 0.117333
1.000000 0.071667 0.117333
0.012000 0.139333 0.117333
0.083333 0.139333 0.117333
0.154667 0.139333 0.117333
0.226000 0.139333 0.117333
0.297333 0.139333 0.117333
0.368667 0.139333 0.117333
0.440000 0.139333 0.117333
0.511333 0.139333 0.117333
0.582667 0.139333 0.117333
0.654000 0.139333 0.117333
0.725333 0.139333 0.117333
0.796667 0.139333 0.117333
0.868000 0.139333 0.117333
0.939333 0.139333 0.117333
1.000000 0.139333 0.117333
1.000000 0.139333 0.117333
0.012000 0.207000 0.117333
0.083333 0.207000 0.117333
0.154667 0.207000 0.117333
0.226000 0.207000 0.117333
0.297333 0.207000 0.117333
0.368667 0.207000 0.117333
0.440000 0.207000 0.117333
0.511333 0.207000 0.117333
0.582667 0.207000 0.117333
0.654000 0.207000 0.117333
0.725333 0.207000 0.117333
0.796667 0.207000 0.117333
0.868000 0.207000 0.117333
0.939333 0.207000 0.117333
1.000000 0.207000 0.117333
1.000000 0.207000 0.117333
0.012000 0.274667 0.117333
0.083333 0.274667 0.117333
0.154667 0.274667 0.117333
0.226000 0.274667 0.117333
0.297333 0.274667 0.117333
0.368667 0.274667 0.117333
0.440000 0.274667 0.117333
0.511333 0.274667 0.117333
0.582667 0.274667 0.117333
0.654000 0.274667 0.117333
0.725333 0.274667 0.117333
0.796667 0.274667 0.117333
0.868000 0.274667 0.117333
0.939333 0.274667 0.117333
1.000000 0.274667 0.117333
1.000000 0.274667 0.117333
0.012000 0.342333 0.117333
0.083333 0.342333 0.117333
0.154667 0.342333 0.117333
0.226000 0.342333 0.117333
0.297333 0.342333 0.117333
0.368667 0.342333 0.117333
0.440000 0.342333 0.117333
0.511333 0.342333 0.117333
0.582667 0.342333 0.117333
0.654000 0.342333 0.117333
0.725333 0.342333 0.117333
0.796667 0.342333 0.117333
0.868000 0.342333 0.117333
0.939333 0.342333 0.117333
1.000000 0.342333 0.117333
1.000000 0.342333 0.117333
0.012000 0.410000 0.117333
0.083333 0.410000 0.117333
0.154667 0.410000 0.117333
0.226000 0.410000 0.117333
0.297333 0.410000 0.117333
0.368667 0.410000 0.117333
0.440000 0.410000 0.117333
0.511333 0.410000 0.117333
0.582667 0.410000 0.117333
0.654000 0.410000 0.117333
0.725333 0.410000 0.117333
0.796667 0.410000 0.117333
0.868000 0.410000 0.117333
0.939333 0.410000 0.117333
1.000000 0.410000 0.117333
1.000000 0.410000 0.117333
0.012000 0.477667 0.117333
0.083333 0.477667 0.117333
0.154667 0.477667 0.117333
0.226000 0.477667 0.117333
0.297333 0.477667 0.117333
0.368667 0.477667 0.117333
0.440000 0.477667 0.117333
0.511333 0.477667 0.117333
0.582667 0.477667 0.117333
0.654000 0.477667 0.117333
0.725333 0.477667 0.117333
0.796667 0.477667 0.117333
0.868000 0.477667 0.117333
0.939333 0.477667 0.117333
1.000000 0.477667 0.117333
1.000000 0.477667 0.117333
0.012000 0.545333 0.117333
0.083333 0.545333 0.117333
0.154667 0.545333 0.117333
0.226000 0.545333 0.117333
0.297333 0.545333 0.117333
0.368667 0.545333 0.117333
0.440000 0.545333 0.117333
0.511333 0.545333 0.117333
0.582667 0.545333 0.117333
0.654000 0.545333 0.117333
0.725333 0.545333 0.117333
0.796667 0.545333 0.117333
0.868000 0.545333 0.117333
0.939333 0.545333 0.117333
1.000000 0.545333 0.117333
1.000000 0.545333 0.117333
0.012000 0.613000 0.117333
0.083333 0.613000 0.117333
0.154667 0.613000 0.117333
0.226000 0.613000 0.117333
0.297333 0.613000 0.117333
0.368667 0.613000 0.117333
0.440000 0.613000 0.117333
0.511333 0.613000 0.117333
0.582667 0.613000 0.117333
0.654000 0.613000 0.117333
0.725333 0.613000 0.117333
0.796667 0.613000 0.117333
0.868000 0.613000 0.117333
0.939333 0.613000 0.117333
1.000000 0.613000 0.117333
1.000000 0.613000 0.117333
0.012000 0.680667 0.117333
0.083333 0.680667 0.117333
0.154667 0.680667 0.117333
0.226000 0.680667 0.117333
0.297333 0.680667 0.117333
0.368667 0.680667 0.117333
0.440000 0.680667 0.117333
0.511333 0.680667 0.117333
0.582667 0.680667 0.117333
0.654000 0.680667 0.117333
0.725333 0.680667 0.117333
0.796667 0.680667 0.117333
0.868000 0.680667 0.117333
0.939333 0.680667 0.117333
1.000000 0.680667 0.117333
1.000000 0.680667 0.117333
0.012000 0.748333 0.117333
0.083333 0.748333 0.117333
0.154667 0.748333 0.117333
0.226000 0.748333 0.117333
0.297333 0.748333 0.117333
0.368667 0.748333 0.117333
0.440000 0.748333 0.117333
0.511333 0.748333 0.117333
0.582667 0.748333 0.117333
0.654000 0.748333 0.117333
0.725333 0.748333 0.117333
0.796667 0.748333 0.117333
0.868000 0.748333 0.117333
0.939333 0.748333 0.117333
1.000000 0.748333 0.117333
1.000000 0.748333 0.117333
0.012000 0.816000 0.117333
0.083333 0.816000 0.117333
0.154667 0.816000 0.117333
0.226000 0.816000 0.117333
0.297333 0.816000 0.117333
0.368667 0.816000 0.117333
0.440000 0.816000 0.117333
0.511333 0.816000 0.117333
0.582667 0.816000 0.117333
0.654000 0.816000 0.117333
0.725333 0.816000 0.117333
0.796667 0.816000 0.117333
0.868000 0.816000 0.117333
0.939333 0.816000 0.117333
1.000000 0.816000 0.117333
1.000000 0.816000 0.117333
0.012000 0.883667 0.117333
0.083333 0.883667 0.117333
0.154667 0.883667 0.117333
0.226000 0.883667 0.117333
0.297333 0.883667 0.117333
0.368667 0.883667 0.117333
0.440000 0.883667 0.117333
0.511333 0.883667 0.117333
0.582667 0.883667 0.117333
0.654000 0.883667 0.117333
0.725333 0.883667 0.117333
0.796667 0.883667 0.117333
0.868000 0.883667 0.117333
0.939333 0.883667 0.117333
1.000000 0.883667 0.117333
1.000000 0.883667 0.117333
0.012000 0.951333 0.117333
0.083333 0.951333 0.117333
0.154667 0.951333 0.117333
0.226000 0.951333 0.117333
0.297333 0.951333 0.117333
0.368667 0.951333 0.117333
0.440000 0.951333 0.117333
0.511333 0.951333 0.117333
0.582667 0.951333 0.117333
0.654000 0.951333 0.117333
0.725333 0.951333 0.117333
0.796667 0.951333 0.117333
0.868000 0.951333 0.117333
0.939333 0.951333 0.117333
1.000000 0.951333 0.117333
1.000000 0.951333 0.117333
0.012000 1.000000 0.117333
0.083333 1.000000 0.117333
0.154667 1.000000 0.117333
0.226000 1.000000 0.117333
0.297333 1.000000 0.117333
0.368667 1.000000 0.117333
0.440000 1.000000 0.117333
0.511333 1.000000 0.117333
0.582667 1.000000 0.117333
0.654000 1.000000 0.117333
0.725333 1.000000 0.117333
0.796667 1.000000 0.117333
0.868000 1.000000 0.117333
0.939333 1.000000 0.117333
1.000000 1.000000 0.117333
1.000000 1.000000 0.117333
0.012000 0.004000 0.179000
0.083333 0.004000 0.179000
0.154667 0.004000 0.179000
0.226000 0.004000 0.179000
0.297333 0.004000 0.179000
0.368667 0.004000 0.179000
0.440000 0.004000 0.179000
0.511333 0.004000 0.179000
0.582667 0.004000 0.179000
0.654000 0.004000 0.179000
0.725333 0.004000 0.179000
0.796667 0.004000 0.179000
0.868000 0.004000 0.179000
0.939333 0.004000 0.179000
1.000000 0.004000 0.179000
1.000000 0.004000 0.179000
0.012000 0.071667 0.179000
0.083333 0.071667 0.179000
0.154667 0.071667 0.179000
0.226000 0.071667 0.179000
0.297333 0.071667 0.179000
0.368667 0.071667 0.179000
0.440000 0.071667 0.179000
0.511333 0.071667 0.179000
0.582667 0.071667 0.179000
0.654000 0.071667 0.179000
0.725333 0.071667 0.179000
0.796667 0.071667 0.179000
0.868000 0.071667 0.179000
0.939333 0.071667 0.179000
1.000000 0.071667 0.179000
1.000000 0.071667 0.179000
0.012000 0.139333 0.179000
0.083333 0.139333 0.179000
0.154667 0.139333 0.179000
0.226000 0.139333 0.179000
0.297333 0.139333 0.179000
0.368667 0.139333 0.179000
0.440000 0.139333 0.179000
0.511333 0.139333 0.179000
0.582667 0.139333 0.179000
0.654000 0.139333 0.179000
0.725333 0.139333 0.179000
0.796667 0.139333 0.179000
0.868000 0.139333 0.179000
0.939333 0.139333 0.179000
1.000000 0.139333 0.179000
1.000000 0.139333 0.179000
0.012000 0.207000 0.179000
0.083333 0.207000 0.179000
0.154667 0.207000 0.179000
0.226000 0.207000 0.179000
0.297333 0.207000 0.179000
0.368667 0.207000 0.179000
0.440000 0.207000 0.179000
0.511333 0.207000 0.179000
0.582667 0.207000 0.179000
0.654000 0.207000 0.179000
0.725333 0.207000 0.179000
0.796667 0.207000 0.179000
0.868000 0.207000 0.179000
0.939333 0.207000 0.179000
1.000000 0.207000 0.179000
1.000000 0.207000 0.179000
0.012000 0.274667 0.179000
0.083333 0.274667 0.179000
0.154667 0.274667 0.179000
0.226000 0.274667 0.179000
0.297333 0.274667 0.179000
0.368667 0.274667 0.179000
0.440000 0.274667 0.179000
0.511333 0.274667 0.179000
0.582667 0.274667 0.179000
0.654000 0.274667 0.179000
0.725333 0.274667 0.179000
0.796667 0.274667 0.179000
0.868000 0.274667 0.179000
0.939333 0.274667 0.179000
1.000000 0.274667 0.179000
1.000000 0.274667 0.179000
0.012000 0.342333 0.179000
0.083333 0.342333 0.179000
0.154667 0.342333 0.179000
0.226000 0.342333 0.179000
0.297333 0.342333 0.179000
0.368667 0.342333 0.179000
0.440000 0.342333 0.179000
0.511333 0.342333 0.179000
0.582667 0.342333 0.179000
0.654000 0.342333 0.179000
0.725333 0.342333 0.179000
0.796667 0.342333 0.179000
0.868000 0.342333 0.179000
0.939333 0.342333 0.179000
1.000000 0.342333 0.179000
1.000000 0.342333 0.179000
0.012000 0.410000 0.179000
0.083333 0.410000 0.179000
0.154667 0.410000 0.179000
0.226000 0.410000 0.179000
0.297333 0.410000 0.179000
0.368667 0.410000 0.179000
0.440000 0.410000 0.179000
0.511333 0.410000 0.179000
0.582667 0.410000 0.179000
0.654000 0.410000 0.179000
0.725333 0.410000 0.179000
0.796667 0.410000 0.179000
0.868000 0.410000 0.179000
0.939333 0.410000 0.179000
1.000000 0.410000 0.179000
1.000000 0.410000 0.179000
0.012000 0.477667 0.179000
0.083333 0.477667 0.179000
0.154667 0.477667 0.179000
0.226000 0.477667 0.179000
0.297333 0.477667 0.179000
