src/nexus_ai_agent/creative/luts/warm.cube
TITLE "nagar-warm-16"
LUT_3D_SIZE 6
DOMAIN_MIN 0.0 0.0 0.0
DOMAIN_MAX 1.0 1.0 1.0
0.012000 0.004000 0.000000
0.226000 0.004000 0.000000
0.440000 0.004000 0.000000
0.654000 0.004000 0.000000
0.868000 0.004000 0.000000
1.000000 0.004000 0.000000
0.012000 0.207000 0.000000
0.226000 0.207000 0.000000
0.440000 0.207000 0.000000
0.654000 0.207000 0.000000
0.868000 0.207000 0.000000
1.000000 0.207000 0.000000
0.012000 0.410000 0.000000
0.226000 0.410000 0.000000
0.440000 0.410000 0.000000
0.654000 0.410000 0.000000
0.868000 0.410000 0.000000
1.000000 0.410000 0.000000
0.012000 0.613000 0.000000
0.226000 0.613000 0.000000
0.440000 0.613000 0.000000
0.654000 0.613000 0.000000
0.868000 0.613000 0.000000
1.000000 0.613000 0.000000
0.012000 0.816000 0.000000
0.226000 0.816000 0.000000
0.440000 0.816000 0.000000
0.654000 0.816000 0.000000
0.868000 0.816000 0.000000
1.000000 0.816000 0.000000
0.012000 1.000000 0.000000
0.226000 1.000000 0.000000
0.440000 1.000000 0.000000
0.654000 1.000000 0.000000
0.868000 1.000000 0.000000
1.000000 1.000000 0.000000
0.012000 0.004000 0.179000
0.226000 0.004000 0.179000
0.440000 0.004000 0.179000
0.654000 0.004000 0.179000
0.868000 0.004000 0.179000
1.000000 0.004000 0.179000
0.012000 0.207000 0.179000
0.226000 0.207000 0.179000
0.440000 0.207000 0.179000
0.654000 0.207000 0.179000
0.868000 0.207000 0.179000
1.000000 0.207000 0.179000
0.012000 0.410000 0.179000
0.226000 0.410000 0.179000
0.440000 0.410000 0.179000
0.654000 0.410000 0.179000
0.868000 0.410000 0.179000
1.000000 0.410000 0.179000
0.012000 0.613000 0.179000
0.226000 0.613000 0.179000
0.440000 0.613000 0.179000
0.654000 0.613000 0.179000
0.868000 0.613000 0.179000
1.000000 0.613000 0.179000
0.012000 0.816000 0.179000
0.226000 0.816000 0.179000
0.440000 0.816000 0.179000
0.654000 0.816000 0.179000
0.868000 0.816000 0.179000
1.000000 0.816000 0.179000
0.012000 1.000000 0.179000
0.226000 1.000000 0.179000
0.440000 1.000000 0.179000
0.654000 1.000000 0.179000
0.868000 1.000000 0.179000
1.000000 1.000000 0.179000
0.012000 0.004000 0.364000
0.226000 0.004000 0.364000
0.440000 0.004000 0.364000
0.654000 0.004000 0.364000
0.868000 0.004000 0.364000
1.000000 0.004000 0.364000
0.012000 0.207000 0.364000
0.226000 0.207000 0.364000
0.440000 0.207000 0.364000
0.654000 0.207000 0.364000
0.868000 0.207000 0.364000
1.000000 0.207000 0.364000
0.012000 0.410000 0.364000
0.226000 0.410000 0.364000
0.440000 0.410000 0.364000
0.654000 0.410000 0.364000
0.868000 0.410000 0.364000
1.000000 0.410000 0.364000
0.012000 0.613000 0.364000
0.226000 0.613000 0.364000
0.440000 0.613000 0.364000
0.654000 0.613000 0.364000
0.868000 0.613000 0.364000
1.000000 0.613000 0.364000
0.012000 0.816000 0.364000
0.226000 0.816000 0.364000
0.440000 0.816000 0.364000
0.654000 0.816000 0.364000
0.868000 0.816000 0.364000
1.000000 0.816000 0.364000
0.012000 1.000000 0.364000
0.226000 1.000000 0.364000
0.440000 1.000000 0.364000
0.654000 1.000000 0.364000
0.868000 1.000000 0.364000
1.000000 1.000000 0.364000
0.012000 0.004000 0.549000
0.226000 0.004000 0.549000
0.440000 0.004000 0.549000
0.654000 0.004000 0.549000
0.868000 0.004000 0.549000
1.000000 0.004000 0.549000
0.012000 0.207000 0.549000
0.226000 0.207000 0.549000
0.440000 0.207000 0.549000
0.654000 0.207000 0.549000
0.868000 0.207000 0.549000
1.000000 0.207000 0.549000
0.012000 0.410000 0.549000
0.226000 0.410000 0.549000
0.440000 0.410000 0.549000
0.654000 0.410000 0.549000
0.868000 0.410000 0.549000
1.000000 0.410000 0.549000
0.012000 0.613000 0.549000
0.226000 0.613000 0.549000
0.440000 0.613000 0.549000
0.654000 0.613000 0.549000
0.868000 0.613000 0.549000
1.000000 0.613000 0.549000
0.012000 0.816000 0.549000
0.226000 0.816000 0.549000
0.440000 0.816000 0.549000
0.654000 0.816000 0.549000
0.868000 0.816000 0.549000
1.000000 0.816000 0.549000
0.012000 1.000000 0.549000
0.226000 1.000000 0.549000
0.440000 1.000000 0.549000
0.654000 1.000000 0.549000
0.868000 1.000000 0.549000
1.000000 1.000000 0.549000
0.012000 0.004000 0.734000
0.226000 0.004000 0.734000
0.440000 0.004000 0.734000
0.654000 0.004000 0.734000
0.868000 0.004000 0.734000
1.000000 0.004000 0.734000
0.012000 0.207000 0.734000
0.226000 0.207000 0.734000
0.440000 0.207000 0.734000
0.654000 0.207000 0.734000
0.868000 0.207000 0.734000
1.000000 0.207000 0.734000
0.012000 0.410000 0.734000
0.226000 0.410000 0.734000
0.440000 0.410000 0.734000
0.654000 0.410000 0.734000
0.868000 0.410000 0.734000
1.000000 0.410000 0.734000
0.012000 0.613000 0.734000
0.226000 0.613000 0.734000
0.440000 0.613000 0.734000
0.654000 0.613000 0.734000
0.868000 0.613000 0.734000
1.000000 0.613000 0.734000
0.012000 0.816000 0.734000
0.226000 0.816000 0.734000
0.440000 0.816000 0.734000
0.654000 0.816000 0.734000
0.868000 0.816000 0.734000
1.000000 0.816000 0.734000
0.012000 1.000000 0.734000
0.226000 1.000000 0.734000
0.440000 1.000000 0.734000
0.654000 1.000000 0.734000
0.868000 1.000000 0.734000
1.000000 1.000000 0.734000
0.012000 0.004000 0.919000
0.226000 0.004000 0.919000
0.440000 0.004000 0.919000
0.654000 0.004000 0.919000
0.868000 0.004000 0.919000
1.000000 0.004000 0.919000
0.012000 0.207000 0.919000
0.226000 0.207000 0.919000
0.440000 0.207000 0.919000
0.654000 0.207000 0.919000
0.868000 0.207000 0.919000
1.000000 0.207000 0.919000
0.012000 0.410000 0.919000
0.226000 0.410000 0.919000
0.440000 0.410000 0.919000
0.654000 0.410000 0.919000
0.868000 0.410000 0.919000
1.000000 0.410000 0.919000
0.012000 0.613000 0.919000
0.226000 0.613000 0.919000
0.440000 0.613000 0.919000
0.654000 0.613000 0.919000
0.868000 0.613000 0.919000
1.000000 0.613000 0.919000
0.012000 0.816000 0.919000
0.226000 0.816000 0.919000
0.440000 0.816000 0.919000
0.654000 0.816000 0.919000
0.868000 0.816000 0.919000
1.000000 0.816000 0.919000
0.012000 1.000000 0.919000
0.226000 1.000000 0.919000
0.440000 1.000000 0.919000
0.654000 1.000000 0.919000
0.868000 1.000000 0.919000
1.000000 1.000000 0.919000
